src/components/Icon/svg-icon/main/dinner.svg

<svg xmlns="http://www.w3.org/2000/svg" width="24" height="24"><path fill="#677078" d="M11 9H9V2H7v7H5V2H3v7c0 2.12 1.66 3.84 3.75 3.97V22h2.5v-9.03C11.34 12.84 13 11.12 13 9V2h-2v7zm5-3v8h2.5v8H21V2c-2.76 0-5 2.24-5 4z"/></svg>

<svg xmlns="http://www.w3.org/2000/svg" width="24" height="24" viewBox="0 0 24 24">
  <path fill="#677078" d="M11,9 L9,9 L9,2 L7,2 L7,9 L5,9 L5,2 L3,2 L3,9 C3,11.12 4.66,12.84 6.75,12.97 L6.75,22 L9.25,22 L9.25,12.97 C11.34,12.84 13,11.12 13,9 L13,2 L11,2 L11,9 Z M16,6 L16,14 L18.5,14 L18.5,22 L21,22 L21,2 C18.24,2 16,4.24 16,6 Z"/>
</svg>
